packages/core/src/svgs/tokens/mono/MBX.svg

<svg width="24" height="24" viewBox="0 0 24 24" fill="none" xmlns="http://www.w3.org/2000/svg">
<path d="M2 19.5V4.5H5.99373L11.9062 10.2625L17.825 4.5H22V19.5H21.6249L19.0187 16.9374L14.5312 12.7812L14.675 12.6562L18.8749 16.5437V7.33124L11.9062 13.675L5.12498 7.33124V16.5437L9.32494 12.6562L9.46873 12.7812L2.21875 19.5H2.05625L2.03125 19.4749L2 19.5ZM11.2937 14.4188L11.4375 14.5437L6.08748 19.5H5.81248L11.2937 14.4188ZM10.7938 13.9687L10.9374 14.0937L5.10624 19.5H4.82499L10.7938 13.9687ZM10.3188 13.5438L10.4624 13.6687L4.16874 19.5H3.88748L10.3249 13.5438H10.3188ZM9.85621 13.1312L10 13.2562L3.26249 19.5H2.98124L9.85621 13.1312ZM12.7062 14.4188L12.5624 14.5437L17.9125 19.5H18.1875L12.7062 14.4188ZM13.2063 13.9687L13.0625 14.0937L18.8938 19.5H19.1749L13.2063 13.9687ZM13.6813 13.5438L13.5375 13.6687L19.8312 19.5H20.1125L13.675 13.5438H13.6813ZM14.1437 13.1312L13.9999 13.2562L20.7374 19.5H21.0187L14.1437 13.1312Z" fill="white"/>
</svg>

<svg xmlns="http://www.w3.org/2000/svg" width="24" height="24" fill="none" viewBox="0 0 24 24">
    <path fill="#fff" d="M2 19.5v-15h3.994l5.912 5.762L17.825 4.5H22v15h-.375l-2.606-2.563-4.488-4.156.144-.125 4.2 3.888V7.33l-6.969 6.344L5.125 7.33v9.213l4.2-3.888.144.125-7.25 6.719h-.163l-.025-.025zm9.294-5.081.143.125-5.35 4.956h-.275zm-.5-.45.143.125-5.83 5.406h-.282zm-.475-.425.143.125L4.17 19.5h-.282l6.438-5.956zm-.463-.413.144.125L3.262 19.5h-.28zm2.85 1.288-.144.125 5.35 4.956h.276zm.5-.45-.143.125 5.83 5.406h.282zm.475-.425-.143.125L19.83 19.5h.282l-6.438-5.956zm.463-.413-.144.125 6.737 6.244h.282z"/>
</svg>
